!!!COM: Beethoven
!!!OTL: 13 Variationen uber "Es war einmal ein alter Mann" aus "Das rote Kappchen" von K. Ditters von Dittersdorf
!!!Variation: Variation 8 e
**function	**harm	**kern	**kern
*	*	*clefF4	*clefG2
*	*	*k[f#c#g#]	*k[f#c#g#]
*M2/4	*M2/4	*M2/4	*M2/4
*A:	*A:	*A:	*A:
8T	8I	8r	8e
=326	=326	=326	=326
2T	2Ic	(16c#LL	(8.aL
.	.	16eJ	.
.	.	8EJ	.
.	.	.	16bJk
.	.	16ALL	8.cc#L
.	.	16c#J	.
.	.	8EJ	.
.	.	.	16ddJk
=327	=327	=327	=327
2T	2V	16BLL	8.eeL
.	.	16dJ	.
.	.	8EJ	.
.	.	.	16ff#Jk
.	.	16G#LL	8.eeL
.	.	16BJ	.
.	.	8EJ	.
.	.	.	16ddJk
=328	=328	=328	=328
2T	2Ic	16ALL	8.cc#L
.	.	16c#J	.
.	.	8EJ	.
.	.	.	16bJk
.	.	16c#LL	8.cc#L
.	.	16eJ	.
.	.	8EJ	.
.	.	.	16ddJk
=329	=329	=329	=329
2T	2V	16BLL	8.eeL
.	.	16dJ	.
.	.	8EJ	.
.	.	.	16ff#Jk
.	.	16G#LL	8.eeL
.	.	16BJ	.
.	.	8EJ)	.
.	.	.	16ddJk
=330	=330	=330	=330
4T	4I	16r	8.cc#L)
.	.	(16ALK	.
.	.	8AAJ)	.
.	.	.	(16eJk 16cc#
4D	4V	16r	8.dL 8.b
.	.	(16ELK	.
.	.	8EEJ)	.
.	.	.	16dJk 16b
=331	=331	=331	=331
4T	4I	(16AALL	8c#) 8a
.	.	16EJ	.
.	.	8AJ	16r
.	.	.	(16gg#
4P	4ii7b	16DLL	8.aaL
.	.	16AJ	.
.	.	8dJ	.
.	.	.	16ff#Jk
=332	=332	=332	=332
4D	4Cc	16ALL	8.eeL
.	.	16c#J	.
.	.	8EJ	.
.	.	.	16cc#Jk
4D	4V	16G#LL	8.ddL
.	.	16dJ	.
.	.	8EJ	.
.	.	.	16bJk
=333	=333	=333	=333
4T	4I	16F#LL	8.aL
.	.	16AJ	.
.	.	8c#J	.
.	.	.	16gg#Jk
4P	4ii7b	16DLL	8.aaL
.	.	16AJ	.
.	.	8dJ	.
.	.	.	16ff#Jk
=334	=334	=334	=334
4D	4Cc	16ALL	8.eeL
.	.	16c#J	.
.	.	8EJ	.
.	.	.	16ccc#Jk
4D	4V	16G#LL	8.dddL
.	.	16BJ	.
.	.	[8EJ	.
.	.	.	16bbJk
=335	=335	=335	=335
4.T	4.I	16ELL]	4aa)
.	.	16A	.
.	.	16E	.
.	.	16C#JJ	.
.	.	8AA)	8r
*-	*-	*-	*-
